X:6
T:6. I live and yet
C:John Wilbye
%#Noindex
%%score [1 2 3]
L:1/4
M:4/4
I:linebreak $
%%transpose 7
K:F
V:1 treble nm="Treble I"
%%MIDI program 73
V:2 treble nm="Treble II"
%%MIDI program 73
V:3 bass nm="Bass" octave=-1
%%MIDI program 73
V:1
 F4 | E4 | z A2 G- | G A2 F- | F G E E | ^F4 |$ F A2 G | F E D D | ^C D2 C | z A B c | d B A2- |$ %11
w: I|live,|and yet|_ me thinks|_ I do not|breathe,|and yet me|thinks I do not|breathe:__|I thirst, and|drink, I drink,|
 A2 G2 | G2 ^F2 | G4 | z ^C D E | F D ^C2 | A4 |$ G3 G | ^F4 | z2 A2 | A4- | A4- | A2 A2 | B4- | %24
w: _ and|thirst a-|gain,|I thirst, and|drink, I drink,|and|thirst a-|gain:|I|sleep||_ and|yet|
 B2 A2 |$ c2 A2 | G2 G2 | A2 D2 | E2 F2 | F2 E2 | F4 | z2 A2- | A2 G F |$ E3 E | F/E/F/G/ A B | %35
w: _ I|dream I|am a-|wake: I|hope for|that I|have;|I|_ have, and|want: I|sing,____ and|
 z c2 A | d3 F | G G A2- | A G/F/ E/D/E/F/ |$ E D z ^C- | C E A2- | A F E E | ^F4 | z A A A | %44
w: sigh: I|love and|hate at once,|_ I_ sing___|_ and sigh;|_ I love|_ and hate at|once.|Oh! tell me,|
 d3 d |$ c4 | z B B B | A3 =B | c4 | F2 B2- | B2 A2 | G2 G2 |$ A4 | c4 | c2 c2 | =B3 c | d4- | %57
w: rest- less|soul,|Oh! tell me,|rest- less|soul,|Oh! tell|_ me,|rest- less|soul,|what|un- couth|jar doth|cause|
 d2 c2 |$ B2 B2 | A2 A2 | c3 =B | A2 G2 | F2 E2- | E2 D2- |$ D2 ^C2 | D F G A | B/c/ d2 c | B3 A | %68
w: _ such|want in|store, doth|cause such|want in|store, in|_ peace|_ such|war, doth cause such|want__ in|store, in|
 G2 G2 | ^F4- |$ F4 |] %71
w: peace such|war?|_|
V:2
 z2 D2 | ^C4 | z F2 E- | E F2 D- | D E ^C C | D4 |$ z A c2 | B A2 G | A F E2 | z ^F G A | %10
w: I|live,|and yet|_ me thinks|_ I do not|breathe,|and yet|me thinks I|do not breathe:|I thirst, and|
 B G ^F2 |$ d4 | c3 c | =B4 | z E F G | A F E2- | E2 D2 |$ D2 ^C2 | D4 | z2 D2 | E2 F2 | E4- | %22
w: drink, I drink,|and|thirst a|gain,|I thirst, and|drink, I drink,|_ and|thirst a-|gain:|I|sleep, and|yet|
 E2 F2 | G4- | G2 F2 |$ E2 F2- | F2 E2 | F2 F2 | G2 A2 | B2 B2 | A4 | z2 F2- | F2 E D |$ ^C3 A | %34
w: _ I|dream|_ I|am a-||wake: I|hope for|that I|have;|I|_ have, and|want: I|
 A/G/F/E/ F F | z G2 A | B3 A | c E F2- | F E/D/ ^C/=B,/C/D/ |$ ^C D z E | A G F2- | F D D ^C | %42
w: sing, ____ and|sigh: I|love and|hate at once,|_ I _ sing___|_ and sigh;|I_ love|_ and hate at|
 D4 | z F F F | D E/F/ G2- |$ G2 F2 | G2 F E/D/ | C2 D2 | E2 G A | B A G F | G2 F2- | F2 E2 |$ F4 | %53
w: once.|Oh! tell me,|rest- less_ soul,|_ Oh!|tell me,__|rest- less|soul, Oh!_|tell___|me, rest-|- less|soul,|
 ^F2 G2- | G2 ^F2 | G3 A | B2 A2 | G D E F |$ G3 G | ^C2 F2 | E2 A2 | c3 =B | A2 G2 | G2 F2 |$ %64
w: what un-|- couth|jar Doth|cause such|want in store, doth|cause such|want in|store, doth|cause such|want in|store, in|
 E2 E2 | D d d c | B2 A2 | G2 ^F2 | B2 B2 | A4- |$ A4 |] %71
w: peace such|war, doth cause such|want in|store, in|peace such|war?|_|
V:3
 D4 | A,4 | z F,2 C- | C A, D3/2 C/ | B,/A,/ G, A, A, | D,4 |$ D F2 E | D C B, B, | A,4 | D4- | %10
w: I|live,|and yet|_ me thinks_|__ I do not|breathe,|and yet me|thinks I do not|breathe:|I|
 D4 |$ ^F,2 B,2 | A,3 A, | G,4 | A,4- | A,4 | ^C,2 F,2 |$ E,2 E,2 | D,4- | D,2 D2 | ^C2 D2 | %21
w: _|thirst, and|drink a-|gain,|I|_|drink and|thirst a-|gain:|_ I|sleep, and|
 A,3 =B, | ^C2 D2 | G,3 A, | B, C D D |$ C4- | C4 | A,2 B,2- | B,2 A,2 | G,2 G,2 | F,4 | z2 F,2- | %32
w: yet I|dream, I|dream_|_ I am a-|wake:|_|I hope|_ for|that I|have;|I|
 F,2 C, D, |$ A,3 A, | D3 D | z C2 F | B,3 D | C C F,2- | F, G, A,2- |$ A, D z A,- | A, C F,2- | %41
w: _ have, and|want: I|sing, and|sigh: I|love and|hate at once,|_ I sing|_ and sigh;|_ I love|
 F, G, A, A, | D,4 | z D D C | B,3 B, |$ A,4 | G,2 D, E, | F,2 D,2 | C,4 | D,4 | E,2 F,2 | %51
w:_ and hate at|once.|Oh! tell me,|rest- less|soul,|Oh! tell me,|rest- less|soul,|Oh!|tell me,|
 C,2 C,2 |$ F,4 | A,4 | A,2 A,2 | G,4- | G,2 ^F,2 | G,4 |$ G,4 | A,4- | A,4- | A,4 | A,4 | A,4- |$ %64
w: rest- less|soul,|what|un- couth|jar|_ doth|cause|such|want|_|_|in|store,|
 A,2 A,2 | B,3 A, | G,2 ^F,2 | G,2 D,2 | G,2 G,2 | D,4- |$ D,4 |] %71
w: _ doth|cause such|want in|store, in|peace such|war?|_|

